neru-light-classic/32x32/apps/fotoprint.svg

<?xml version="1.0" encoding="UTF-8" standalone="no"?>
<svg
   xmlns:dc="http://purl.org/dc/elements/1.1/"
   xmlns:cc="http://creativecommons.org/ns#"
   xmlns:rdf="http://www.w3.org/1999/02/22-rdf-syntax-ns#"
   xmlns:svg="http://www.w3.org/2000/svg"
   xmlns="http://www.w3.org/2000/svg"
   xmlns:sodipodi="http://sodipodi.sourceforge.net/DTD/sodipodi-0.dtd"
   xmlns:inkscape="http://www.inkscape.org/namespaces/inkscape"
   width="32"
   height="32"
   version="1"
   id="svg18"
   sodipodi:docname="fotoprint.svg"
   inkscape:version="0.92.1 r">
  <metadata
     id="metadata24">
    <rdf:RDF>
      <cc:Work
         rdf:about="">
        <dc:format>image/svg+xml</dc:format>
        <dc:type
           rdf:resource="http://purl.org/dc/dcmitype/StillImage" />
        <dc:title />
      </cc:Work>
    </rdf:RDF>
  </metadata>
  <defs
     id="defs22" />
  <sodipodi:namedview
     pagecolor="#ffffff"
     bordercolor="#666666"
     borderopacity="1"
     objecttolerance="10"
     gridtolerance="10"
     guidetolerance="10"
     inkscape:pageopacity="0"
     inkscape:pageshadow="2"
     inkscape:window-width="640"
     inkscape:window-height="480"
     id="namedview20"
     showgrid="false"
     inkscape:zoom="8.9375"
     inkscape:cx="13.1247"
     inkscape:cy="20.4284"
     inkscape:current-layer="svg18" />
  <rect
     style="opacity:1;fill:#0074af;fill-opacity:1;fill-rule:evenodd;stroke:none;stroke-width:1.03534329;stroke-linecap:round;stroke-linejoin:bevel;stroke-miterlimit:4;stroke-dasharray:none;stroke-dashoffset:0;stroke-opacity:1"
     id="rect4497-3"
     width="28.203388"
     height="28.203388"
     x="1.8983059"
     y="1.8983059"
     ry="5.575182" />
  <path
     style="opacity:1;fill:#2666ad;fill-opacity:1;fill-rule:evenodd;stroke:none;stroke-width:1.03534329;stroke-linecap:round;stroke-linejoin:bevel;stroke-miterlimit:4;stroke-dasharray:none;stroke-dashoffset:0;stroke-opacity:1"
     d="M 9.1347656 10.876953 C 8.6654057 10.876953 8.2871094 11.255073 8.2871094 11.724609 L 8.2871094 20.275391 C 8.2871094 20.744927 8.6654057 21.123047 9.1347656 21.123047 L 22.865234 21.123047 C 23.334594 21.123047 23.712891 20.744927 23.712891 20.275391 L 23.712891 11.724609 C 23.712891 11.255073 23.334594 10.876953 22.865234 10.876953 L 9.1347656 10.876953 z "
     id="path4776" />
  <path
     style="opacity:1;fill:#5b5b5b;fill-opacity:1;fill-rule:evenodd;stroke:none;stroke-width:1.03534329;stroke-linecap:round;stroke-linejoin:bevel;stroke-miterlimit:4;stroke-dasharray:none;stroke-dashoffset:0;stroke-opacity:1"
     d="M 8.2871094 1.8984375 L 7.4726562 1.8984375 C 4.3840054 1.8984375 1.8984375 4.3840054 1.8984375 7.4726562 L 1.8984375 24.527344 C 1.8984375 27.615995 4.3840054 30.101562 7.4726562 30.101562 L 8.2871094 30.101562 L 8.2871094 23.058594 C 8.2871094 22.589058 8.6654057 22.210938 9.1347656 22.210938 L 22.865234 22.210938 C 23.334594 22.210937 23.712891 22.589058 23.712891 23.058594 L 23.712891 30.101562 L 24.527344 30.101562 C 27.615995 30.101563 30.101562 27.615995 30.101562 24.527344 L 30.101562 7.4726562 C 30.101563 4.3840054 27.615995 1.8984375 24.527344 1.8984375 L 23.712891 1.8984375 L 23.712891 8.9414062 C 23.712891 9.4109413 23.334594 9.7890625 22.865234 9.7890625 L 9.1347656 9.7890625 C 8.6654057 9.7890625 8.2871094 9.4109413 8.2871094 8.9414062 L 8.2871094 1.8984375 z M 9.1347656 10.876953 L 22.865234 10.876953 C 23.334594 10.876953 23.712891 11.255073 23.712891 11.724609 L 23.712891 20.275391 C 23.712891 20.744927 23.334594 21.123047 22.865234 21.123047 L 9.1347656 21.123047 C 8.6654057 21.123047 8.2871094 20.744927 8.2871094 20.275391 L 8.2871094 11.724609 C 8.2871094 11.255073 8.6654057 10.876953 9.1347656 10.876953 z "
     id="path4772" />
  <g
     id="g4760"
     transform="matrix(0.9172524,0,0,0.91742125,-35.180238,1.1159625)"
     style="stroke-width:1.09011209;fill:#ffffff;fill-opacity:1">
    <g
       id="g4743"
       style="stroke-width:1.09011209;fill:#ffffff;fill-opacity:1">
      <g
         id="g4726"
         style="stroke-width:1.09011209;fill:#ffffff;fill-opacity:1">
        <rect
           ry="0.44883981"
           y="8.6931276"
           x="42.149681"
           height="2.6715991"
           width="3.6706803"
           id="rect4529-1"
           style="opacity:1;fill:#ffffff;fill-opacity:1;fill-rule:nonzero;stroke:#4e4e4e;stroke-width:0.21802242;stroke-linecap:round;stroke-linejoin:miter;stroke-miterlimit:4;stroke-dasharray:none;stroke-dashoffset:0;stroke-opacity:1" />
        <rect
           ry="0.44883981"
           y="16.952927"
           x="42.149681"
           height="2.6715991"
           width="3.6706803"
           id="rect4529-3-2"
           style="opacity:1;fill:#ffffff;fill-opacity:1;fill-rule:nonzero;stroke:#4e4e4e;stroke-width:0.21802242;stroke-linecap:round;stroke-linejoin:miter;stroke-miterlimit:4;stroke-dasharray:none;stroke-dashoffset:0;stroke-opacity:1" />
        <rect
           ry="0.44883981"
           y="21.082827"
           x="42.149681"
           height="2.6715991"
           width="3.6706803"
           id="rect4529-3-6-70"
           style="opacity:1;fill:#ffffff;fill-opacity:1;fill-rule:nonzero;stroke:#4e4e4e;stroke-width:0.21802242;stroke-linecap:round;stroke-linejoin:miter;stroke-miterlimit:4;stroke-dasharray:none;stroke-dashoffset:0;stroke-opacity:1" />
        <rect
           ry="0.44883981"
           y="25.212725"
           x="42.149681"
           height="2.6715991"
           width="3.6706803"
           id="rect4529-3-6-7-9"
           style="opacity:1;fill:#ffffff;fill-opacity:1;fill-rule:nonzero;stroke:#4e4e4e;stroke-width:0.21802242;stroke-linecap:round;stroke-linejoin:miter;stroke-miterlimit:4;stroke-dasharray:none;stroke-dashoffset:0;stroke-opacity:1" />
        <rect
           ry="0.44883981"
           y="12.823028"
           x="42.149681"
           height="2.6715991"
           width="3.6706803"
           id="rect4529-3-6-7-5-36"
           style="opacity:1;fill:#ffffff;fill-opacity:1;fill-rule:nonzero;stroke:#4e4e4e;stroke-width:0.21802242;stroke-linecap:round;stroke-linejoin:miter;stroke-miterlimit:4;stroke-dasharray:none;stroke-dashoffset:0;stroke-opacity:1" />
        <rect
           ry="0.44883981"
           y="4.5632296"
           x="42.149681"
           height="2.6715991"
           width="3.6706803"
           id="rect4529-3-6-7-5-5-62"
           style="opacity:1;fill:#ffffff;fill-opacity:1;fill-rule:nonzero;stroke:#4e4e4e;stroke-width:0.21802242;stroke-linecap:round;stroke-linejoin:miter;stroke-miterlimit:4;stroke-dasharray:none;stroke-dashoffset:0;stroke-opacity:1" />
      </g>
    </g>
    <g
       id="g4734"
       style="stroke-width:1.09011209;fill:#ffffff;fill-opacity:1">
      <rect
         style="opacity:1;fill:#ffffff;fill-opacity:1;fill-rule:nonzero;stroke:#4e4e4e;stroke-width:0.21802242;stroke-linecap:round;stroke-linejoin:miter;stroke-miterlimit:4;stroke-dasharray:none;stroke-dashoffset:0;stroke-opacity:1"
         id="rect4529-1-6"
         width="3.6706803"
         height="2.6715991"
         x="65.774307"
         y="8.6931276"
         ry="0.44883981" />
      <rect
         style="opacity:1;fill:#ffffff;fill-opacity:1;fill-rule:nonzero;stroke:#4e4e4e;stroke-width:0.21802242;stroke-linecap:round;stroke-linejoin:miter;stroke-miterlimit:4;stroke-dasharray:none;stroke-dashoffset:0;stroke-opacity:1"
         id="rect4529-3-2-1"
         width="3.6706803"
         height="2.6715991"
         x="65.774307"
         y="16.952927"
         ry="0.44883981" />
      <rect
         style="opacity:1;fill:#ffffff;fill-opacity:1;fill-rule:nonzero;stroke:#4e4e4e;stroke-width:0.21802242;stroke-linecap:round;stroke-linejoin:miter;stroke-miterlimit:4;stroke-dasharray:none;stroke-dashoffset:0;stroke-opacity:1"
         id="rect4529-3-6-70-8"
         width="3.6706803"
         height="2.6715991"
         x="65.774307"
         y="21.082827"
         ry="0.44883981" />
      <rect
         style="opacity:1;fill:#ffffff;fill-opacity:1;fill-rule:nonzero;stroke:#4e4e4e;stroke-width:0.21802242;stroke-linecap:round;stroke-linejoin:miter;stroke-miterlimit:4;stroke-dasharray:none;stroke-dashoffset:0;stroke-opacity:1"
         id="rect4529-3-6-7-9-7"
         width="3.6706803"
         height="2.6715991"
         x="65.774307"
         y="25.212725"
         ry="0.44883981" />
      <rect
         style="opacity:1;fill:#ffffff;fill-opacity:1;fill-rule:nonzero;stroke:#4e4e4e;stroke-width:0.21802242;stroke-linecap:round;stroke-linejoin:miter;stroke-miterlimit:4;stroke-dasharray:none;stroke-dashoffset:0;stroke-opacity:1"
         id="rect4529-3-6-7-5-36-9"
         width="3.6706803"
         height="2.6715991"
         x="65.774307"
         y="12.823029"
         ry="0.44883981" />
      <rect
         style="opacity:1;fill:#ffffff;fill-opacity:1;fill-rule:nonzero;stroke:#4e4e4e;stroke-width:0.21802242;stroke-linecap:round;stroke-linejoin:miter;stroke-miterlimit:4;stroke-dasharray:none;stroke-dashoffset:0;stroke-opacity:1"
         id="rect4529-3-6-7-5-5-62-2"
         width="3.6706803"
         height="2.6715991"
         x="65.774307"
         y="4.5632296"
         ry="0.44883981" />
    </g>
  </g>
  <g
     id="g4887"
     transform="translate(34.985398,0.51855458)">
    <path
       id="path4793-2-7"
       d="m -18.488281,5.3710938 c -1.558961,5.0327692 -5.36895,8.6765052 -6.408203,12.2792972 a 6.1711135,6.1711135 0 0 0 -0.166016,0.71289 c -0.01809,0.100087 -0.03174,0.20059 -0.04492,0.300781 a 6.1711135,6.1711135 0 0 0 -0.03906,0.50586 c -0.0073,0.164353 -0.01148,0.329045 -0.0039,0.49414 a 6.1711135,6.1711135 0 0 0 6.16211,5.927735 6.1711135,6.1711135 0 0 0 6.171875,-6.171875 6.1711135,6.1711135 0 0 0 -0.02539,-0.521484 c -0.03266,-4.122563 -4.567103,-7.769776 -5.646484,-13.5273442 z"
       style="fill:#f0c612;fill-opacity:1;stroke:none;stroke-width:0.10000002;stroke-linecap:butt;stroke-linejoin:miter;stroke-miterlimit:4;stroke-dasharray:none;stroke-opacity:1"
       inkscape:connector-curvature="0" />
    <path
       sodipodi:nodetypes="ccc"
       inkscape:connector-curvature="0"
       id="path4795-3-5"
       d="m -19.550082,10.717211 c -1.158872,4.376494 2.677431,13.411631 -1.176711,12.210122 -5.306283,-1.140366 -2.142602,-5.695533 1.176711,-12.210122 z"
       style="fill:#ffffff;fill-opacity:1;stroke:none;stroke-width:0.10000002;stroke-linecap:butt;stroke-linejoin:miter;stroke-miterlimit:4;stroke-dasharray:none;stroke-opacity:1" />
  </g>
  <path
     style="fill:#ffffff;stroke-width:0.99999994"
     d="m 3.4993745,-10.35894 c -0.01364,-0.437689 -0.02478,-1.538914 -0.02478,-2.447164 v -1.65136 l -0.103585,-2.57e-4 c -0.05697,-1.38e-4 -0.244587,-0.03407 -0.416915,-0.07538 -1.2845343,-0.307946 -2.3046983,-1.380828 -2.5480983,-2.67977 -0.05308,-0.28326 -0.05921,-0.673132 -0.04892,-3.106765 0.01288,-3.046764 0.0022,-2.896241 0.24327,-3.479734 0.349404,-0.846295 1.072417,-1.561668 1.9048363,-1.884701 0.611403,-0.237265 0.351762,-0.22811 6.130071,-0.216118 l 5.2548245,0.01085 0.275594,0.08522 c 1.287041,0.39798 2.216501,1.433505 2.437826,2.71602 0.05006,0.290053 0.05676,0.732336 0.04645,3.062792 -0.0118,2.676379 -0.01356,2.729029 -0.09542,3.025136 -0.182601,0.660084 -0.622578,1.353839 -1.115995,1.759706 -0.435944,0.358591 -0.816048,0.552124 -1.407479,0.716627 -0.281758,0.07837 -0.372805,0.08159 -2.68709,0.09503 l -2.3954535,0.01393 -0.80747,0.722653 c -0.444108,0.397462 -1.60494,1.436732 -2.57963,2.309491 -0.974687,0.872756 -1.831801,1.639198 -1.904697,1.703199 l -0.132527,0.116374 z"
     id="path4548"
     inkscape:connector-curvature="0"
     sodipodi:nodetypes="csccccscccccccccccccsccc" />
</svg>

<svg xmlns="http://www.w3.org/2000/svg" width="32" height="32" version="1"><rect width="28.203" height="28.203" x="1.898" y="1.898" ry="5.575" fill="#0074af" fill-rule="evenodd"/><path d="M9.135 10.877a.846.846 0 0 0-.848.848v8.55c0 .47.378.848.848.848h13.73c.47 0 .848-.378.848-.848v-8.55a.846.846 0 0 0-.848-.848H9.135z" fill="#2666ad" fill-rule="evenodd"/><path d="M8.287 1.898h-.814a5.561 5.561 0 0 0-5.575 5.575v17.054a5.561 5.561 0 0 0 5.575 5.575h.814v-7.043c0-.47.378-.848.848-.848h13.73c.47 0 .848.378.848.848v7.043h.814a5.561 5.561 0 0 0 5.575-5.575V7.473a5.561 5.561 0 0 0-5.575-5.575h-.814v7.043c0 .47-.378.848-.848.848H9.135a.846.846 0 0 1-.848-.848V1.898zm.848 8.979h13.73c.47 0 .848.378.848.848v8.55c0 .47-.378.848-.848.848H9.135a.846.846 0 0 1-.848-.848v-8.55c0-.47.378-.848.848-.848z" fill="#5b5b5b" fill-rule="evenodd"/><g stroke-width="1.09" fill="#fff"><g stroke="#4e4e4e" stroke-width=".218" stroke-linecap="round" transform="matrix(.91725 0 0 .91742 -35.18 1.116)"><rect ry=".449" y="8.693" x="42.15" height="2.672" width="3.671"/><rect ry=".449" y="16.953" x="42.15" height="2.672" width="3.671"/><rect ry=".449" y="21.083" x="42.15" height="2.672" width="3.671"/><rect ry=".449" y="25.213" x="42.15" height="2.672" width="3.671"/><rect ry=".449" y="12.823" x="42.15" height="2.672" width="3.671"/><rect ry=".449" y="4.563" x="42.15" height="2.672" width="3.671"/></g><g stroke="#4e4e4e" stroke-width=".218" stroke-linecap="round" transform="matrix(.91725 0 0 .91742 -35.18 1.116)"><rect width="3.671" height="2.672" x="65.774" y="8.693" ry=".449"/><rect width="3.671" height="2.672" x="65.774" y="16.953" ry=".449"/><rect width="3.671" height="2.672" x="65.774" y="21.083" ry=".449"/><rect width="3.671" height="2.672" x="65.774" y="25.213" ry=".449"/><rect width="3.671" height="2.672" x="65.774" y="12.823" ry=".449"/><rect width="3.671" height="2.672" x="65.774" y="4.563" ry=".449"/></g></g><path d="M16.497 5.89c-1.559 5.032-5.369 8.676-6.408 12.279a6.171 6.171 0 0 0-.166.713c-.018.1-.032.2-.045.3a6.171 6.171 0 0 0-.04.506 5.471 5.471 0 0 0-.003.495 6.171 6.171 0 0 0 6.162 5.927 6.171 6.171 0 0 0 6.172-6.172 6.171 6.171 0 0 0-.025-.521c-.033-4.123-4.567-7.77-5.647-13.527z" fill="#f0c612"/><path d="M15.435 11.236c-1.159 4.376 2.678 13.411-1.176 12.21-5.307-1.14-2.143-5.696 1.176-12.21zM3.5-10.359c-.014-.438-.025-1.539-.025-2.447v-1.651H3.37a3.44 3.44 0 0 1-2.965-2.755c-.053-.284-.06-.674-.049-3.108C.37-23.366.36-23.216.6-23.8c.35-.846 1.073-1.561 1.905-1.884.612-.237.352-.228 6.13-.216l5.255.01.276.086c1.287.398 2.216 1.433 2.437 2.716.05.29.057.732.047 3.063-.012 2.676-.014 2.729-.095 3.025-.183.66-.623 1.354-1.116 1.76-.436.358-.817.552-1.408.716-.282.079-.373.082-2.687.095l-2.395.014-.808.723A18862.776 18862.776 0 0 0 3.657-9.68l-.133.117z" fill="#fff"/></svg>
